X: 10
T: Sixpenny Money
Z: Shawn Cassady
S: https://thesession.org/tunes/387#setting53239
R: jig
M: 6/8
L: 1/8
K: Dmaj
|:fAA fAA|BAG FGE|DED AFA|dcd ede|
fAA fAA|BAG FGE|DED AFA|1dcd eag:|2dcd ede||
|:fef gfg|afd ede|fef gfg|afd ede|
fef gfg|afd edB|ABA AFA|1dcd ede:|2dcd eag||

